X:01
T: Rakish Paddy
S: Will Harmon's setting
M: 4/4
L: 1/8
Z: Contributed 20040309202758 by Zina Lee zlee@ntw.net
K: D mix
AB |: c2 cd c2 AB | cBAG EFGc | Add^c defe| dcAG FGAB |
| cAdB cAdB | cBAG EFGE | D2 (3EFG ABcA |1 dcAG FGAB :|2 dcAG FD D2 ||
| e~g3 e~c3 | e~g3 ed^cd | eaag abag | eaag ed^cd|
| e~g3 e~c3 | egge defg | af (3gfe fde^c |1 dcAG FD D2 :|2dcAG FGAB ||
